assets/icons/traton/home.svg

<svg xmlns="http://www.w3.org/2000/svg" width="32" height="32" viewBox="0 0 32 32" fill="none">
<path d="M28 9.9706V28H18V19.0441H14V28H4V9.9706L16 4L28 9.9706ZM6 11.2009V26.0098H12V17.0539H20V26.0098H26V11.2009L16 6.22537L6 11.2009Z" fill="#001D21" />
</svg>

<svg xmlns="http://www.w3.org/2000/svg" fill="none" viewBox="0 0 32 32"><path fill="#001d21" d="M28 10v18H18v-9h-4v9H4V10l12-6zM6 11.2V26h6v-9h8v9h6V11.2l-10-5z"/></svg>
